X:1
T:Fugue (Sonata) in C minor
T:Fugue (Sonata) in C minor
T:Kp. 58, L. 158
T:Domenico Scarlatti (1685-1757)
C:Domenico Scarlatti (1685-1757)
%%score { ( 1 2 4 ) | ( 3 5 ) }
L:1/8
M:4/4
K:Eb
V:1 treble nm="Grand Piano" snm="Pno."
V:2 treble 
V:4 treble 
V:3 bass 
V:5 bass 
V:1
 c4 =B2 _B2 | =A2 _A2 G2 c2- | c2 =B2 c4 | g4 ^f2 =f2 | =e2 _e2 d2 g2- | g2 ^f2 g3 =f | %6
 e3 f gf/e/ de | fe/d/ cd e4 | d4 c4 | BGBc dc/B/ =AB | cB/=A/ GA B3 c/B/ | =Aedc =BBcd | %12
 c4 =B2 _B2 | =A2 _A2 e4 | d2 _d2 f4 | =e2 _e2 d2 _d2 | c2 f4 e=d/c/ | de/f/ g2 cd/e/ f2- | %18
 f2 ed/c/ d4 | c2 c2 Bcde | fe/d/ cd e4 | d2 _d2 c'4 | =b2 _b2 =a2 _a2 | g2 g2 f3 e/=d/ | %24
 c2 f2 ef gf/e/ | d2 c2 c2 c_B/=A/ | Bcd=e ^f2 g2- | g=f/e/ f2- f=e/d/ e2 | fg a3 g/f/ ga | %29
 b2 b3 a/g/ a=b | c'3 c' =b2 _b2 | =a2 _a2 g2 _g2 | f2 f2 ecef | gf/e/ de fe/d/ cd | e3 e d4 | %35
 =ec f3 e/d/ e2 | f2 f2 =e2 _e2- | e_d/c/ de fe/d/ cd | e_d/c/ Bc d3 e/d/ | c2 c2 B2 B2 | %40
 cd e3 d/c/ d=e | f2 f2- f=e/d/ e^f | gd g2 ^f2 =f2 | =e2 _e2 d=e/^f/ g2- | g2 =f4 _e2 | d4 cd e2 | %46
 de f2 =e f2 e | fg a2 g3 f/e/ | dg^f=f =e _e2 d/c/ | =Bcdd =ec'=b_b | =a _a2 g/f/ =e f2 e | %51
 fe/d/ cf/e/ d e2 d | x2 g2 g =Bcd | G c'=b_b =a_agg | ^f=f=e_e- ed/c/ =Bc/d/ | %55
 G=A/=B/ c3 B/A/ B2 |[Q:1/4=117] c3[Q:1/4=114] _B[Q:1/4=111] A3[Q:1/4=108] B/A/ | %57
[Q:1/4=105] G=A/=B/[Q:1/4=102] cB[Q:1/4=99] !fermata![=EGc]4 |] %58
V:2
 z8 | z4 z2 E2 | F2 G2 CDEF | G=ABc dc/B/ A=B | cB/=A/ GA B2 B2 | c2 d2 GG=A=B | cG c2 d2 G2 | %7
 c2 F2 G=A/=B/ c2 | FG/A/ GF EF GF/E/ | D2 G2 =A2 D2 | G2 C2 DE/F/ G2- | G2 ^F2 G2 =F2 | %12
 EFGA GF/E/ D=E | FE/D/ CD GABc | FGAB cBc_d | GABc FGAB | x2 c_d G2 c2 | d3 G c3 F | %18
 =B2 c2 FG/A/ GF | EF GF/E/ D3 F/G/ | AG/F/ EF GABc | FGAB ef gf/e/ | defg cdef | GABc _dc B2 | %24
 AB cB/A/ G2 c2 | =BGFC ED/C/ D2 | D2 B2 =AdcG | B_A/G/ A2 G3 G | ABcd eB e2- | ed/c/ d=e fc f2- | %30
 f_e/d/ ef gf/e/ d=e | fe/d/ cd ed/c/ Bc | _dc/B/ AB c2 x2 | G2 G2 F2 F2 | G=A/=B/ c2 FG/_A/ GF | %35
 G2 F2 G3 G | AB/c/ BA GA/B/ AG | F2 F2 F2 F2 | B3 E FG/A/ B2- | BA/G/ A3 G/F/ G2 | A3 G F3 G | %41
 =AFA=B c2- c2- | c_B/=A/ Bc dc/B/ A=B | c_B/=A/ GA B3 B | =A_edc =BG c2- | c2 =B2 EFG=A | %46
 =B c2 B cG _B2 | ABcd ed c2 | =BG=AB c c2 B/A/ | GGF=B ccd=e | ff/e/ dd GABG | F2 F2 FGAF | %52
 G=A/=B/ c2 B GAA | G cde fc=B_B | =A_AGG A2 GF | E3 D/C/ D3 D | =EF G2- GF/E/ F2- | F3 F x4 |] %58
V:3
 z8 | z8 | z8 | z8 | z8 | z8 | C4 =B,2 _B,2 | =A,2 _A,2 G,2 C2- | C2 =B,2 C2 C2 | %9
 [G,,G,]4 [^F,,^F,]2 [=F,,=F,]2 | [=E,,=E,]2 _E,2 D,2 G,2- | G,2 ^F,2 G,2 =F,2 | C2 x2 G,3 C, | %13
 F,3 B,, E,F,G,A, | B,A,/G,/ F,G, A,G,A,B, | CB,/A,/ G,=A, B,_A,/G,/ F,G, | x6 C2 | %17
 =B,2 _B,2 =A,2 _A,2 | G,2 C4 =B,2 | C2 x6 | x4 E2 x2 | x4 C2 C2 | =B,CD=E F_E/D/ CD | %23
 E2 E2 B,2 B,2 | F,2 F,2 [C,,C,][D,,D,][E,,E,][F,,F,] | [G,,G,]2 [A,,A,]2 [G,,G,]2 [^F,,^F,]2 | %26
 G,2 G,2 =A,B, C2 | D3 C =B,G,C_B, | A,3 B, B,3 F, | B,3 C C3 G, | C2 z2 z4 | z8 | z4 C4 | %33
 =B,2 _B,2 =A,2 _A,2 | G,2 C4 _B,2- | B,2 A,G,/F,/ G,4 | x8 | B,4 =A,2 _A,2 | G,2 _G,2 F,2 B,2- | %39
 B,2 A,2 x2 G,2 | A,2 A,2 B,3 C | F,3 G, C3 D | G,3 x x4 | x8 | C2 D3 C/=B,/ C2 | D4 x4 | %46
 G,F,/E,/ D,G, CB,/A,/ G,C | A,3 G,/F,/ C2 C2 | G,2 G,2- G,G,^F,=F,- | F,E, D,G,/F,/ =E,2 C,2 | %50
 C,C=B,_B,- B,A, G,C/B,/ | =A, B,2 A, B,G, F,B,/_A,/ | G,F,E,F, G,G,^F,=F, | =E,_E,D,C, z F,G,G, | %54
 G,2 G,2 F,2 G,D, | E,3 F, G,2 G,2 | [C,,C,]2 [C,,C,]2 [C,,C,]2 [C,,C,]2 | %57
 [C,,C,]2 [C,,C,]2 !fermata![C,,C,]4 |] %58
V:4
 x8 | x8 | x8 | B2 x6 | x8 | x8 | x8 | x8 | x8 | x8 | x8 | x8 | G2 x6 | x8 | x8 | x8 | x8 | x8 | %18
 x8 | x8 | x8 | x8 | x8 | x8 | x8 | x8 | x8 | x8 | x8 | x8 | x8 | x8 | x8 | x8 | x8 | x8 | x8 | %37
 x8 | x8 | x8 | x8 | x8 | x8 | x8 | x8 | x8 | x8 | x8 | x8 | x8 | x8 | x8 | x2 ed/c/ x4 | x8 | x8 | %55
 x8 | x8 | x8 |] %58
V:5
 x8 | x8 | x8 | x8 | x8 | x8 | z8 | z4 z2 E,2 | F,2 G,2 C,D,E,F, | x8 | x6 B,,2 | %11
 C,2 D,2 G,,G,,=A,,=B,, | C,D,E,F, x4 | x8 | x8 | x8 | A,F,A,B, CC, z2 | z8 | z2 E,2 F,2 G,2 | %19
 C,D,E,F, G,A, B,A,/G,/ | F,G,/A,/ G,F, E,F,G,A, | B,A,/G,/ F,G, A,G,/F,/ E,F, | G,2 G,2 F,2 F,2 | %23
 E,F,G,=A, B,,C,_D,E, | F,,G,,A,,B,, x4 | x8 | G,,=A,,B,,C, D,2 E,2 | D,3 C, =B,,2 C,2 | %28
 F,3 B,, E,3 F, | B,,3 C, F,3 G, | C,2 x6 | x8 | z8 | z8 | z2 E,2 F,2 G,2 | C,2 _D,2 B,,2 C,2 | %36
 F,G,A,B, CB,/A,/ G,A, | z8 | z4 z2 _D,2 | E,2 F,E, _D,E,/F,/ E,D, | C,B,, A,,2 B,,3 C, | %41
 F,,3 G,, C,3 D, | G,,3 E, D,E,F,G, | C,D,E,F, G,G,,G,B,, | C,2 D,2 G,2 _A,G, | %45
 F,G,/A,/ G,F, E,D, C,B,,/=A,,/ | G,,2 x2 C,2 C,2 | F,3 E,/D,/ C,D,E,F, | G,,2 G,,2 G,,2 G,,2 | %49
 G,,2 G,,2 C,2 x2 | x4 C,2 C,2 | F,2 F,2 B,,2 B,,2 | E,D, C,B,,/A,,/ G,,2 G,,2 | %53
 G,,2 G,,2 G,,2 G,,2 | G,,2 G,,2 G,,2 G,,2 | G,,2 G,,2 G,,2 G,,2 | x8 | x8 |] %58

